X: 8731
T: Crush Cars
R: reel
M: 4/4
K: Dmajor
D|EB B2 EGBe|dBAF EDB,A,|DF F2 DFAe|dFAD FBAF|
DB B2 EGBe|dBdF EDB,A,|DF F2 DFAe|dBAB E3:|
G|Bege dBBE|AEBE cEdE|Bege fgfe|^dBeB fB B2|
BABc dAcA|ABcA BEGE|EDFA dedc|BGAF E3:|

